assets/images/icons/key-info-08.svg

<svg width="32" height="32" viewBox="0 0 32 32" fill="none" xmlns="http://www.w3.org/2000/svg">
<g clip-path="url(#clip0_211_3705)">
<path opacity="0.1" d="M0.223155 23.1618C-0.0589054 20.752 -0.098086 18.3874 0.248062 16.248C0.673696 13.6174 1.78493 10.6909 2.99894 8.07362C5.37163 2.95839 9.61911 1.16885 14.7912 0.362065C22.0007 -0.762522 31.9372 0.362091 32 9.08714C31.6383 12.2073 29.2517 20.8815 21.1951 21.5434C18.5313 21.7622 17.5348 24.4378 16.3612 27.5006C13.2729 35.5602 1.25575 31.9835 0.223155 23.1618Z" fill="#7FB51F"/>
<path d="M4 22.7781V24.2844C4 24.6727 4.31481 24.9875 4.70312 24.9875C5.09144 24.9875 5.40625 24.6727 5.40625 24.2844V23.4813H26.5938V24.2844C26.5938 24.6727 26.9086 24.9875 27.2969 24.9875C27.6852 24.9875 28 24.6727 28 24.2844V22.7781V20.4688H4V22.7781Z" fill="#7FB51F"/>
<path d="M25.4141 14.5437H6.58591C5.16006 14.5437 4 15.7038 4 17.1297V19.0625H28V17.1297C28 15.7038 26.8399 14.5437 25.4141 14.5437Z" fill="#7FB51F"/>
<path d="M13.3633 11.4312C12.7128 11.4312 12.1836 11.9603 12.1836 12.6108V13.1374H19.8148V12.6108C19.8148 11.9603 19.2857 11.4312 18.6352 11.4312H13.3633Z" fill="#7FB51F"/>
<path d="M10.7773 12.6109C10.7773 11.185 11.9373 10.025 13.3633 10.025H18.6352C20.0611 10.025 21.2211 11.185 21.2211 12.6109V13.1374H24.9867V9.59836C24.9867 8.17247 23.8267 7.01245 22.4007 7.01245H9.59762C8.17173 7.01245 7.01172 8.17247 7.01172 9.59836V13.1374H10.7773V12.6109Z" fill="#7FB51F"/>
</g>
<defs>
<clipPath id="clip0_211_3705">
<rect width="32" height="32" fill="white"/>
</clipPath>
</defs>
</svg>

<svg xmlns="http://www.w3.org/2000/svg" width="32" height="32" fill="none"><g fill="#7FB51F" clip-path="url(#a)"><path d="M.223 23.162c-.282-2.41-.321-4.775.025-6.914.426-2.63 1.537-5.557 2.75-8.174C5.373 2.958 9.62 1.169 14.792.362 22.001-.763 31.937.362 32 9.087c-.362 3.12-2.748 11.795-10.805 12.456-2.664.22-3.66 2.895-4.834 5.958-3.088 8.06-15.105 4.482-16.138-4.34" opacity=".1"/><path d="M4 22.778v1.506a.703.703 0 0 0 1.406 0v-.803h21.188v.803a.703.703 0 0 0 1.406 0v-3.816H4zm21.414-8.234H6.586A2.59 2.59 0 0 0 4 17.13v1.933h24V17.13a2.59 2.59 0 0 0-2.586-2.586m-12.051-3.113c-.65 0-1.18.53-1.18 1.18v.526h7.632v-.526c0-.65-.53-1.18-1.18-1.18z"/><path d="M10.777 12.61a2.59 2.59 0 0 1 2.586-2.585h5.272a2.59 2.59 0 0 1 2.586 2.586v.526h3.766V9.598A2.59 2.59 0 0 0 22.4 7.012H9.598a2.59 2.59 0 0 0-2.586 2.586v3.54h3.765z"/></g><defs><clipPath id="a"><path fill="#fff" d="M0 0h32v32H0z"/></clipPath></defs></svg>
